;FLAVOR:Marlin
;TIME:6666
;Filament used: 0m
;Layer height: 0.3
;MINX:2.14748e+06
;MINY:2.14748e+06
;MINZ:2.14748e+06
;MAXX:-2.14748e+06
;MAXY:-2.14748e+06
;MAXZ:-2.14748e+06

;Generated with Cura_SteamEngine master
M104 S210
M105
M109 S210
M82 ;absolute extrusion mode
G28 ;Home
 G29 L1 
 G29 A 
 M420 L1 s 
 G1 Z15.0 F2000 ;Move the platform
G92 E0
G92 E0
G1 F1500 E-6.5
;LAYER_COUNT:10
;LAYER:0
M107
;MESH:/home/idim3d/catkin_ws/src/SNU_SmartLAB/snu_idim_slicer/specimen_3T.stl
G0 F3600 X138.512 Y115.5 Z0.3
;TYPE:WALL-INNER
G1 F1500 E0
G1 F1800 X81.488 Y115.5 E2.84494
G1 X77.883 Y115.584 E3.02484
G1 X74.274 Y115.84 E3.20535
G1 X70.683 Y116.264 E3.38575
G1 X67.114 Y116.855 E3.56623
G1 X63.577 Y117.615 E3.74672
G1 X60.227 Y118.5 E3.91959
G1 X28.5 Y118.5 E5.50245
G1 X28.5 Y101.5 E6.35059
G1 X60.227 Y101.5 E7.93345
G1 X63.577 Y102.385 E8.10632
G1 X67.114 Y103.145 E8.28681
G1 X70.683 Y103.736 E8.46729
G1 X74.274 Y104.16 E8.64769
G1 X77.883 Y104.416 E8.8282
G1 X81.488 Y104.5 E9.0081
G1 X138.512 Y104.5 E11.85304
G1 X142.117 Y104.416 E12.03294
G1 X145.726 Y104.16 E12.21345
G1 X149.317 Y103.736 E12.39385
G1 X152.886 Y103.145 E12.57433
G1 X156.423 Y102.385 E12.75482
G1 X159.773 Y101.5 E12.92769
G1 X191.5 Y101.5 E14.51055
G1 X191.5 Y118.5 E15.35869
G1 X159.773 Y118.5 E16.94155
G1 X156.423 Y117.615 E17.11442
G1 X152.886 Y116.855 E17.29491
G1 X149.317 Y116.264 E17.47539
G1 X145.726 Y115.84 E17.65579
G1 X142.117 Y115.584 E17.8363
G1 X138.512 Y115.5 E18.0162
G0 F3600 X138.507 Y115.9
G1 F1800 X81.493 Y115.9 E20.86064
G1 X77.902 Y115.984 E21.03985
G1 X74.312 Y116.238 E21.2194
G1 X70.739 Y116.66 E21.3989
G1 X67.189 Y117.248 E21.57842
G1 X63.67 Y118.004 E21.75799
G1 X60.28 Y118.9 E21.93292
G1 X28.1 Y118.9 E23.53839
G1 X28.1 Y101.1 E24.42644
G1 X60.28 Y101.1 E26.0319
G1 X63.67 Y101.996 E26.20684
G1 X67.189 Y102.752 E26.38641
G1 X70.739 Y103.34 E26.56593
G1 X74.312 Y103.762 E26.74543
G1 X77.902 Y104.016 E26.92498
G1 X81.493 Y104.1 E27.10419
G1 X138.507 Y104.1 E29.94863
G1 X142.098 Y104.016 E30.12783
G1 X145.688 Y103.762 E30.30738
G1 X149.261 Y103.34 E30.48688
G1 X152.811 Y102.752 E30.6664
G1 X156.33 Y101.996 E30.84597
G1 X159.72 Y101.1 E31.02091
G1 X191.9 Y101.1 E32.62638
G1 X191.9 Y118.9 E33.51442
G1 X159.72 Y118.9 E35.11989
G1 X156.33 Y118.004 E35.29482
G1 X152.811 Y117.248 E35.47439
G1 X149.261 Y116.66 E35.65392
G1 X145.688 Y116.238 E35.83341
G1 X142.098 Y115.984 E36.01297
G1 X138.507 Y115.9 E36.19217
G0 F3600 X138.502 Y116.3
;TYPE:WALL-OUTER
G1 F1800 X81.498 Y116.3 E39.03611
G1 X77.921 Y116.384 E39.21462
G1 X74.35 Y116.636 E39.39322
G1 X70.795 Y117.056 E39.57181
G1 X67.264 Y117.641 E39.75038
G1 X63.763 Y118.393 E39.92903
G1 X60.333 Y119.3 E40.10603
G1 X27.7 Y119.3 E41.7341
G1 X27.7 Y100.7 E42.66206
G1 X60.333 Y100.7 E44.29012
G1 X63.763 Y101.607 E44.46713
G1 X67.264 Y102.359 E44.64578
G1 X70.795 Y102.944 E44.82434
G1 X74.35 Y103.364 E45.00293
G1 X77.921 Y103.616 E45.18154
G1 X81.498 Y103.7 E45.36004
G1 X138.502 Y103.7 E48.20398
G1 X142.079 Y103.616 E48.38249
G1 X145.65 Y103.364 E48.56109
G1 X149.205 Y102.944 E48.73968
G1 X152.736 Y102.359 E48.91825
G1 X156.237 Y101.607 E49.0969
G1 X159.667 Y100.7 E49.2739
G1 X192.3 Y100.7 E50.90197
G1 X192.3 Y119.3 E51.82993
G1 X159.667 Y119.3 E53.45799
G1 X156.237 Y118.393 E53.635
G1 X152.736 Y117.641 E53.81365
G1 X149.205 Y117.056 E53.99221
G1 X145.65 Y116.636 E54.1708
G1 X142.079 Y116.384 E54.34941
G1 X138.502 Y116.3 E54.52791
G0 F3600 X138.302 Y116.3
G0 X138.302 Y115.86
G0 X138.516 Y115.11
;TYPE:SKIN
G1 F1800 X81.484 Y115.11 E57.37325
G1 X77.865 Y115.194 E57.55385
G1 X74.237 Y115.452 E57.73531
G1 X70.628 Y115.878 E57.91661
G1 X67.042 Y116.471 E58.09795
G1 X63.486 Y117.235 E58.27941
G1 X60.176 Y118.11 E58.45022
G1 X28.89 Y118.11 E60.01108
G1 X28.89 Y101.89 E60.8203
G1 X60.176 Y101.89 E62.38117
G1 X63.486 Y102.765 E62.55197
G1 X67.042 Y103.529 E62.73343
G1 X70.628 Y104.122 E62.91477
G1 X74.237 Y104.548 E63.09607
G1 X77.865 Y104.806 E63.27753
G1 X81.484 Y104.89 E63.45813
G1 X138.516 Y104.89 E66.30347
G1 X142.135 Y104.806 E66.48407
G1 X145.763 Y104.548 E66.66553
G1 X149.372 Y104.122 E66.84683
G1 X152.958 Y103.529 E67.02817
G1 X156.514 Y102.765 E67.20963
G1 X159.824 Y101.89 E67.38044
G1 X191.11 Y101.89 E68.9413
G1 X191.11 Y118.11 E69.75052
G1 X159.824 Y118.11 E71.31139
G1 X156.514 Y117.235 E71.4822
G1 X152.958 Y116.471 E71.66365
G1 X149.372 Y115.878 E71.84499
G1 X145.763 Y115.452 E72.02629
G1 X142.135 Y115.194 E72.20775
G1 X138.516 Y115.11 E72.38835
G1 F1500 E65.88835
G0 F3600 X138.513 Y115.389
G0 X156.463 Y117.449
G0 X159.795 Y118.329
G0 X191.318 Y118.318
G0 X191.39 Y102.136
G0 X190.949 Y102.136
G1 F1500 E72.38835
G1 F1800 X190.862 Y102.05 E72.39446
G0 F3600 X190.297 Y102.05
G1 F1800 X190.949 Y102.702 E72.44046
G0 F3600 X190.949 Y103.267
G1 F1800 X189.731 Y102.05 E72.52636
G0 F3600 X189.165 Y102.05
G1 F1800 X190.949 Y103.833 E72.65219
G0 F3600 X190.949 Y104.399
G1 F1800 X188.6 Y102.05 E72.81793
G0 F3600 X188.034 Y102.05
G1 F1800 X190.949 Y104.965 E73.0236
G0 F3600 X190.949 Y105.53
G1 F1800 X187.468 Y102.05 E73.26917
G0 F3600 X186.903 Y102.05
G1 F1800 X190.949 Y106.096 E73.55463
G0 F3600 X190.949 Y106.662
G1 F1800 X186.337 Y102.05 E73.88004
G0 F3600 X185.771 Y102.05
G1 F1800 X190.949 Y107.227 E74.24534
G0 F3600 X190.949 Y107.793
G1 F1800 X185.206 Y102.05 E74.65054
G0 F3600 X184.64 Y102.05
G1 F1800 X190.949 Y108.359 E75.09567
G0 F3600 X190.949 Y108.924
G1 F1800 X184.074 Y102.05 E75.5807
G0 F3600 X183.509 Y102.05
G1 F1800 X190.949 Y109.49 E76.10563
G0 F3600 X190.949 Y110.056
G1 F1800 X182.943 Y102.05 E76.6705
G0 F3600 X182.377 Y102.05
G1 F1800 X190.949 Y110.621 E77.27527
G0 F3600 X190.949 Y111.187
G1 F1800 X181.812 Y102.05 E77.91993
G0 F3600 X181.246 Y102.05
G1 F1800 X190.949 Y111.753 E78.60453
G0 F3600 X190.949 Y112.318
G1 F1800 X180.68 Y102.05 E79.32903
G0 F3600 X180.114 Y102.05
G1 F1800 X190.949 Y112.884 E80.09346
G0 F3600 X190.949 Y113.45
G1 F1800 X179.549 Y102.05 E80.89779
G0 F3600 X178.983 Y102.05
G1 F1800 X190.949 Y114.016 E81.74206
G0 F3600 X190.949 Y114.581
G1 F1800 X178.417 Y102.05 E82.62622
G0 F3600 X177.852 Y102.05
G1 F1800 X190.949 Y115.147 E83.55029
G0 F3600 X190.949 Y115.713
G1 F1800 X177.286 Y102.05 E84.51429
G0 F3600 X176.72 Y102.05
G1 F1800 X190.949 Y116.278 E85.51818
G0 F3600 X190.949 Y116.844
G1 F1800 X176.155 Y102.05 E86.56198
G0 F3600 X175.589 Y102.05
G1 F1800 X190.949 Y117.41 E87.64571
G0 F3600 X190.923 Y117.95
G1 F1800 X175.023 Y102.05 E88.76754
G0 F3600 X174.458 Y102.05
G1 F1800 X190.358 Y117.95 E89.88937
G0 F3600 X189.792 Y117.95
G1 F1800 X173.892 Y102.05 E91.0112
G0 F3600 X173.326 Y102.05
G1 F1800 X189.226 Y117.95 E92.13303
G0 F3600 X188.661 Y117.95
G1 F1800 X172.761 Y102.05 E93.25487
G0 F3600 X172.195 Y102.05
G1 F1800 X188.095 Y117.95 E94.3767
G0 F3600 X187.529 Y117.95
G1 F1800 X171.629 Y102.05 E95.49853
G0 F3600 X171.063 Y102.05
G1 F1800 X186.963 Y117.95 E96.62036
G0 F3600 X186.398 Y117.95
G1 F1800 X170.498 Y102.05 E97.74219
G0 F3600 X169.932 Y102.05
G1 F1800 X185.832 Y117.95 E98.86402
G0 F3600 X185.266 Y117.95
G1 F1800 X169.366 Y102.05 E99.98585
G0 F3600 X168.801 Y102.05
G1 F1800 X184.701 Y117.95 E101.10768
G0 F3600 X184.135 Y117.95
G1 F1800 X168.235 Y102.05 E102.22951
G0 F3600 X167.669 Y102.05
G1 F1800 X183.569 Y117.95 E103.35134
G0 F3600 X183.004 Y117.95
G1 F1800 X167.104 Y102.05 E104.47317
G0 F3600 X166.538 Y102.05
G1 F1800 X182.438 Y117.95 E105.59501
G0 F3600 X181.872 Y117.95
G1 F1800 X165.972 Y102.05 E106.71684
G0 F3600 X165.407 Y102.05
G1 F1800 X181.307 Y117.95 E107.83867
G0 F3600 X180.741 Y117.95
G1 F1800 X164.841 Y102.05 E108.9605
G0 F3600 X164.275 Y102.05
G1 F1800 X180.175 Y117.95 E110.08233
G0 F3600 X179.61 Y117.95
G1 F1800 X163.71 Y102.05 E111.20416
G0 F3600 X163.144 Y102.05
G1 F1800 X179.044 Y117.95 E112.32599
G0 F3600 X178.478 Y117.95
G1 F1800 X162.578 Y102.05 E113.44782
G0 F3600 X162.013 Y102.05
G1 F1800 X177.913 Y117.95 E114.56965
G0 F3600 X177.347 Y117.95
G1 F1800 X161.447 Y102.05 E115.69148
G0 F3600 X160.881 Y102.05
G1 F1800 X176.781 Y117.95 E116.81331
G0 F3600 X176.215 Y117.95
G1 F1800 X160.315 Y102.05 E117.93515
G0 F3600 X159.77 Y102.07
G1 F1800 X175.65 Y117.95 E119.05556
G0 F3600 X175.084 Y117.95
G1 F1800 X159.322 Y102.188 E120.16766
G0 F3600 X158.875 Y102.307
G1 F1800 X174.518 Y117.95 E121.27136
G0 F3600 X173.953 Y117.95
G1 F1800 X158.427 Y102.425 E122.36677
G0 F3600 X157.98 Y102.543
G1 F1800 X173.387 Y117.95 E123.45381
G0 F3600 X172.821 Y117.95
G1 F1800 X157.532 Y102.661 E124.53253
G0 F3600 X157.085 Y102.78
G1 F1800 X172.256 Y117.95 E125.60289
G0 F3600 X171.69 Y117.95
G1 F1800 X156.638 Y102.898 E126.66489
G0 F3600 X156.175 Y103.001
G1 F1800 X171.124 Y117.95 E127.71963
G0 F3600 X170.559 Y117.95
G1 F1800 X155.71 Y103.101 E128.7673
G0 F3600 X155.244 Y103.201
G1 F1800 X169.993 Y117.95 E129.80793
G0 F3600 X169.427 Y117.95
G1 F1800 X154.779 Y103.301 E130.84146
G0 F3600 X154.313 Y103.401
G1 F1800 X168.862 Y117.95 E131.86797
G0 F3600 X168.296 Y117.95
G1 F1800 X153.848 Y103.502 E132.88735
G0 F3600 X153.382 Y103.601
G1 F1800 X167.73 Y117.95 E133.89972
G0 F3600 X167.164 Y117.95
G1 F1800 X152.913 Y103.699 E134.9052
G0 F3600 X152.428 Y103.779
G1 F1800 X166.599 Y117.95 E135.90504
G0 F3600 X166.033 Y117.95
G1 F1800 X151.943 Y103.859 E136.8992
G0 F3600 X151.457 Y103.939
G1 F1800 X165.467 Y117.95 E137.88772
G0 F3600 X164.902 Y117.95
G1 F1800 X150.972 Y104.02 E138.87056
G0 F3600 X150.487 Y104.1
G1 F1800 X164.336 Y117.95 E139.84771
G0 F3600 X163.77 Y117.95
G1 F1800 X150.001 Y104.18 E140.81923
G0 F3600 X149.516 Y104.261
G1 F1800 X163.205 Y117.95 E141.78506
G0 F3600 X162.639 Y117.95
G1 F1800 X149.014 Y104.325 E142.74638
G0 F3600 X148.507 Y104.384
G1 F1800 X162.073 Y117.95 E143.70353
G0 F3600 X161.508 Y117.95
G1 F1800 X148.002 Y104.444 E144.65645
G0 F3600 X147.496 Y104.504
G1 F1800 X160.942 Y117.95 E145.60514
G0 F3600 X160.376 Y117.95
G1 F1800 X146.99 Y104.564 E146.54959
G0 F3600 X146.484 Y104.623
G1 F1800 X159.799 Y117.938 E147.48904
G0 F3600 X159.029 Y117.734
G1 F1800 X145.978 Y104.683 E148.40986
G0 F3600 X145.458 Y104.729
G1 F1800 X158.261 Y117.531 E149.31314
G0 F3600 X157.491 Y117.328
G1 F1800 X144.931 Y104.767 E150.19935
G0 F3600 X144.403 Y104.805
G1 F1800 X156.722 Y117.124 E151.06853
G0 F3600 X155.991 Y116.958
G1 F1800 X143.875 Y104.842 E151.92338
G0 F3600 X143.347 Y104.88
G1 F1800 X155.27 Y116.803 E152.76461
G0 F3600 X154.549 Y116.648
G1 F1800 X142.819 Y104.918 E153.59222
G0 F3600 X142.291 Y104.955
G1 F1800 X153.828 Y116.493 E154.40626
G0 F3600 X153.108 Y116.338
G1 F1800 X141.745 Y104.975 E155.20798
G0 F3600 X141.192 Y104.988
G1 F1800 X152.423 Y116.219 E156.00038
G0 F3600 X151.745 Y116.106
G1 F1800 X140.639 Y105.001 E156.78394
G0 F3600 X140.086 Y105.013
G1 F1800 X151.067 Y115.995 E157.55874
G0 F3600 X150.389 Y115.882
G1 F1800 X139.533 Y105.026 E158.32469
G0 F3600 X138.98 Y105.039
G1 F1800 X149.712 Y115.771 E159.08189
G0 F3600 X149.055 Y115.679
G1 F1800 X138.425 Y105.049 E159.83189
G0 F3600 X137.859 Y105.049
G1 F1800 X148.413 Y115.604 E160.57657
G0 F3600 X147.772 Y115.528
G1 F1800 X137.293 Y105.049 E161.31592
G0 F3600 X136.728 Y105.049
G1 F1800 X147.131 Y115.452 E162.04991
G0 F3600 X146.489 Y115.377
G1 F1800 X136.162 Y105.049 E162.77857
G0 F3600 X135.596 Y105.049
G1 F1800 X145.848 Y115.301 E163.5019
G0 F3600 X145.235 Y115.254
G1 F1800 X135.031 Y105.049 E164.22189
G0 F3600 X134.465 Y105.049
G1 F1800 X144.626 Y115.211 E164.93884
G0 F3600 X144.017 Y115.167
G1 F1800 X133.899 Y105.049 E165.65272
G0 F3600 X133.334 Y105.049
G1 F1800 X143.408 Y115.124 E166.36353
G0 F3600 X142.799 Y115.08
G1 F1800 X132.768 Y105.049 E167.07127
G0 F3600 X132.202 Y105.049
G1 F1800 X142.19 Y115.037 E167.77597
G0 F3600 X141.608 Y115.021
G1 F1800 X131.637 Y105.049 E168.47952
G0 F3600 X131.071 Y105.049
G1 F1800 X141.029 Y115.008 E169.18214
G0 F3600 X140.45 Y114.994
G1 F1800 X130.505 Y105.049 E169.88382
G0 F3600 X129.94 Y105.049
G1 F1800 X139.871 Y114.981 E170.58454
G0 F3600 X139.292 Y114.967
G1 F1800 X129.374 Y105.049 E171.28431
G0 F3600 X128.808 Y105.049
G1 F1800 X138.713 Y114.954 E171.98316
G0 F3600 X138.142 Y114.949
G1 F1800 X128.243 Y105.049 E172.68162
G0 F3600 X127.677 Y105.049
G1 F1800 X137.576 Y114.949 E173.38008
G0 F3600 X137.011 Y114.949
G1 F1800 X127.111 Y105.049 E174.07858
G0 F3600 X126.545 Y105.049
G1 F1800 X136.445 Y114.949 E174.77708
G0 F3600 X135.879 Y114.949
G1 F1800 X125.98 Y105.049 E175.47554
G0 F3600 X125.414 Y105.049
G1 F1800 X135.314 Y114.949 E176.17404
G0 F3600 X134.748 Y114.949
G1 F1800 X124.848 Y105.049 E176.87254
G0 F3600 X124.283 Y105.049
G1 F1800 X134.182 Y114.949 E177.571
G0 F3600 X133.617 Y114.949
G1 F1800 X123.717 Y105.049 E178.2695
G0 F3600 X123.151 Y105.049
G1 F1800 X133.051 Y114.949 E178.968
G0 F3600 X132.485 Y114.949
G1 F1800 X122.586 Y105.049 E179.66646
G0 F3600 X122.02 Y105.049
G1 F1800 X131.919 Y114.949 E180.36493
G0 F3600 X131.354 Y114.949
G1 F1800 X121.454 Y105.049 E181.06343
G0 F3600 X120.889 Y105.049
G1 F1800 X130.788 Y114.949 E181.76189
G0 F3600 X130.222 Y114.949
G1 F1800 X120.323 Y105.049 E182.46035
G0 F3600 X119.757 Y105.049
G1 F1800 X129.657 Y114.949 E183.15885
G0 F3600 X129.091 Y114.949
G1 F1800 X119.192 Y105.049 E183.85731
G0 F3600 X118.626 Y105.049
G1 F1800 X128.525 Y114.949 E184.55578
G0 F3600 X127.96 Y114.949
G1 F1800 X118.06 Y105.049 E185.25428
G0 F3600 X117.494 Y105.049
G1 F1800 X127.394 Y114.949 E185.95277
G0 F3600 X126.828 Y114.949
G1 F1800 X116.929 Y105.049 E186.65124
G0 F3600 X116.363 Y105.049
G1 F1800 X126.263 Y114.949 E187.34974
G0 F3600 X125.697 Y114.949
G1 F1800 X115.797 Y105.049 E188.04823
G0 F3600 X115.232 Y105.049
G1 F1800 X125.131 Y114.949 E188.7467
G0 F3600 X124.566 Y114.949
G1 F1800 X114.666 Y105.049 E189.4452
G0 F3600 X114.1 Y105.049
G1 F1800 X124 Y114.949 E190.14369
G0 F3600 X123.434 Y114.949
G1 F1800 X113.535 Y105.049 E190.84216
G0 F3600 X112.969 Y105.049
G1 F1800 X122.868 Y114.949 E191.54062
G0 F3600 X122.303 Y114.949
G1 F1800 X112.403 Y105.049 E192.23912
G0 F3600 X111.838 Y105.049
G1 F1800 X121.737 Y114.949 E192.93758
G0 F3600 X121.171 Y114.949
G1 F1800 X111.272 Y105.049 E193.63605
G0 F3600 X110.706 Y105.049
G1 F1800 X120.606 Y114.949 E194.33454
G0 F3600 X120.04 Y114.949
G1 F1800 X110.141 Y105.049 E195.03301
G0 F3600 X109.575 Y105.049
G1 F1800 X119.474 Y114.949 E195.73147
G0 F3600 X118.909 Y114.949
G1 F1800 X109.009 Y105.049 E196.42997
G0 F3600 X108.444 Y105.049
G1 F1800 X118.343 Y114.949 E197.12843
G0 F3600 X117.777 Y114.949
G1 F1800 X107.878 Y105.049 E197.8269
G0 F3600 X107.312 Y105.049
G1 F1800 X117.212 Y114.949 E198.52539
G0 F3600 X116.646 Y114.949
G1 F1800 X106.746 Y105.049 E199.22389
G0 F3600 X106.181 Y105.049
G1 F1800 X116.08 Y114.949 E199.92236
G0 F3600 X115.515 Y114.949
G1 F1800 X105.615 Y105.049 E200.62085
G0 F3600 X105.049 Y105.049
G1 F1800 X114.949 Y114.949 E201.31935
G0 F3600 X114.383 Y114.949
G1 F1800 X104.484 Y105.049 E202.01782
G0 F3600 X103.918 Y105.049
G1 F1800 X113.818 Y114.949 E202.71631
G0 F3600 X113.252 Y114.949
G1 F1800 X103.352 Y105.049 E203.41481
G0 F3600 X102.787 Y105.049
G1 F1800 X112.686 Y114.949 E204.11328
G0 F3600 X112.12 Y114.949
G1 F1800 X102.221 Y105.049 E204.81174
G0 F3600 X101.655 Y105.049
G1 F1800 X111.555 Y114.949 E205.51024
G0 F3600 X110.989 Y114.949
G1 F1800 X101.09 Y105.049 E206.2087
G0 F3600 X100.524 Y105.049
G1 F1800 X110.423 Y114.949 E206.90716
G0 F3600 X109.858 Y114.949
G1 F1800 X99.958 Y105.049 E207.60566
G0 F3600 X99.393 Y105.049
G1 F1800 X109.292 Y114.949 E208.30413
G0 F3600 X108.726 Y114.949
G1 F1800 X98.827 Y105.049 E209.00259
G0 F3600 X98.261 Y105.049
G1 F1800 X108.161 Y114.949 E209.70109
G0 F3600 X107.595 Y114.949
G1 F1800 X97.695 Y105.049 E210.39959
G0 F3600 X97.13 Y105.049
G1 F1800 X107.029 Y114.949 E211.09805
G0 F3600 X106.464 Y114.949
G1 F1800 X96.564 Y105.049 E211.79655
G0 F3600 X95.998 Y105.049
G1 F1800 X105.898 Y114.949 E212.49505
G0 F3600 X105.332 Y114.949
G1 F1800 X95.433 Y105.049 E213.19351
G0 F3600 X94.867 Y105.049
G1 F1800 X104.767 Y114.949 E213.89201
G0 F3600 X104.201 Y114.949
G1 F1800 X94.301 Y105.049 E214.59051
G0 F3600 X93.736 Y105.049
G1 F1800 X103.635 Y114.949 E215.28897
G0 F3600 X103.07 Y114.949
G1 F1800 X93.17 Y105.049 E215.98747
