;FLAVOR:Marlin
;TIME:3954
;Filament used: 3.18588m
;Layer height: 0.2
;MINX:27.7
;MINY:100.7
;MINZ:0.3
;MAXX:192.3
;MAXY:119.3
;MAXZ:2.9
;Generated with Cura_SteamEngine 4.6.2
M140 S60
M105
M190 S60
M104 S200
M105
M109 S200
M82 ;absolute extrusion mode
G28 ;Home
G1 Z15.0 F2000 ;Move the platform
G92 E0
G92 E0
G1 F1500 E-6.5
;LAYER_COUNT:14
;LAYER:0
M107
M204 S1000
;MESH:specimen_type1_3T (ASTM).stl
G0 F7500 X84.351 Y115.9 Z0.3
;TYPE:WALL-INNER
G1 F1500 E0
G1 X81.314 Y115.904 E0.15152
G1 X77.9 Y115.984 E0.32189
G1 X77.706 Y115.999 E0.3316
G1 X74.312 Y116.238 E0.50134
G1 X70.739 Y116.66 E0.68084
G1 X67.188 Y117.249 E0.86042
G1 X66.999 Y117.29 E0.87007
G1 X63.67 Y118.005 E1.03994
G1 X60.281 Y118.9 E1.21482
G1 X28.1 Y118.9 E2.82033
G1 X28.1 Y101.1 E3.70838
G1 X60.28 Y101.1 E5.31384
G1 X63.67 Y101.995 E5.48877
G1 X63.858 Y102.036 E5.49837
G1 X67.188 Y102.751 E5.66829
G1 X70.739 Y103.34 E5.84787
G1 X74.312 Y103.762 E6.02737
G1 X77.901 Y104.016 E6.20687
G1 X81.493 Y104.1 E6.38612
G1 X138.507 Y104.1 E9.23056
G1 X142.1 Y104.016 E9.40987
G1 X142.294 Y104.001 E9.41958
G1 X145.688 Y103.762 E9.58932
G1 X149.261 Y103.34 E9.76882
G1 X152.812 Y102.751 E9.9484
G1 X153.001 Y102.71 E9.95805
G1 X156.33 Y101.995 E10.12792
G1 X159.719 Y101.1 E10.30279
G1 X191.9 Y101.1 E11.90831
G1 X191.9 Y118.9 E12.79636
G1 X159.721 Y118.9 E14.40177
G1 X159.623 Y118.874 E14.40683
G1 X156.331 Y118.005 E14.5767
G1 X156.142 Y117.964 E14.58635
G1 X152.812 Y117.249 E14.75627
G1 X149.261 Y116.66 E14.93585
G1 X145.688 Y116.238 E15.11534
G1 X142.099 Y115.984 E15.29485
G1 X138.507 Y115.9 E15.4741
G1 X84.351 Y115.9 E18.17596
G0 F7500 X84.351 Y116.3
;TYPE:WALL-OUTER
G1 F1500 X81.319 Y116.304 E18.32722
G1 X77.92 Y116.384 E18.49685
G1 X77.737 Y116.398 E18.506
G1 X74.35 Y116.636 E18.6754
G1 X70.795 Y117.056 E18.85399
G1 X67.263 Y117.642 E19.03261
G1 X67.084 Y117.681 E19.04175
G1 X63.763 Y118.394 E19.21121
G1 X60.334 Y119.3 E19.38816
G1 X27.7 Y119.3 E21.01627
G1 X27.7 Y100.7 E21.94423
G1 X60.333 Y100.7 E23.5723
G1 X63.763 Y101.606 E23.74929
G1 X63.943 Y101.645 E23.75848
G1 X67.263 Y102.358 E23.92789
G1 X70.795 Y102.944 E24.10651
G1 X74.35 Y103.364 E24.28511
G1 X77.92 Y103.616 E24.46366
G1 X81.498 Y103.7 E24.64221
G1 X138.502 Y103.7 E27.48615
G1 X142.08 Y103.616 E27.66471
G1 X142.263 Y103.602 E27.67387
G1 X145.65 Y103.364 E27.84326
G1 X149.205 Y102.944 E28.02186
G1 X152.737 Y102.358 E28.20048
G1 X152.916 Y102.319 E28.20962
G1 X156.237 Y101.606 E28.37908
G1 X159.666 Y100.7 E28.55602
G1 X192.3 Y100.7 E30.18414
G1 X192.3 Y119.3 E31.1121
G1 X159.667 Y119.3 E32.74016
G1 X159.52 Y119.261 E32.74775
G1 X156.237 Y118.394 E32.91715
G1 X156.057 Y118.355 E32.92634
G1 X152.737 Y117.642 E33.09576
G1 X149.205 Y117.056 E33.27438
G1 X145.65 Y116.636 E33.45297
G1 X142.08 Y116.384 E33.63152
G1 X138.502 Y116.3 E33.81008
G1 X84.351 Y116.3 E36.51168
G0 F7500 X84.151 Y116.3
G0 X84.151 Y115.86
G0 X84.351 Y115.51
;TYPE:SKIN
G1 F1500 X81.31 Y115.514 E36.6634
G1 X77.793 Y115.601 E36.83892
G1 X74.275 Y115.85 E37.01487
G1 X70.684 Y116.274 E37.19527
G1 X67.114 Y116.866 E37.37581
G1 X66.917 Y116.909 E37.38587
G1 X63.578 Y117.625 E37.55624
G1 X60.23 Y118.51 E37.72901
G1 X28.49 Y118.51 E39.31252
G1 X28.49 Y101.49 E40.16165
G1 X60.23 Y101.49 E41.74517
G1 X63.578 Y102.374 E41.91793
G1 X63.774 Y102.417 E41.92794
G1 X67.114 Y103.134 E42.09837
G1 X70.684 Y103.726 E42.27891
G1 X74.275 Y104.15 E42.45931
G1 X77.883 Y104.406 E42.63976
G1 X81.489 Y104.49 E42.81972
G1 X138.511 Y104.49 E45.66456
G1 X142.207 Y104.399 E45.84901
G1 X145.725 Y104.15 E46.02496
G1 X149.316 Y103.726 E46.20536
G1 X152.886 Y103.134 E46.3859
G1 X153.083 Y103.091 E46.39596
G1 X156.422 Y102.375 E46.56633
G1 X159.77 Y101.49 E46.7391
G1 X191.51 Y101.49 E48.32261
G1 X191.51 Y118.51 E49.17175
G1 X159.771 Y118.51 E50.75521
G1 X159.722 Y118.497 E50.75774
G1 X156.422 Y117.626 E50.92802
G1 X156.224 Y117.583 E50.93812
G1 X152.886 Y116.866 E51.10846
G1 X149.316 Y116.274 E51.289
G1 X145.725 Y115.85 E51.4694
G1 X142.117 Y115.594 E51.64985
G1 X138.511 Y115.51 E51.82981
G1 X84.351 Y115.51 E54.53186
G1 F1500 E48.03186
G0 F7500 X84.351 Y115.79
G0 X69.505 Y116.663
G0 X60.259 Y118.729
G0 X28.97 Y118.79
G0 X28.97 Y118.349
G1 F1500 E54.53186
G1 X28.649 Y118.028 E54.55451
G0 F7500 X28.649 Y117.462
G1 F1500 X29.536 Y118.349 E54.61709
G0 F7500 X30.102 Y118.349
G1 F1500 X28.649 Y116.896 E54.71961
G0 F7500 X28.649 Y116.331
G1 F1500 X30.667 Y118.349 E54.86199
G0 F7500 X31.233 Y118.349
G1 F1500 X28.649 Y115.765 E55.0443
G0 F7500 X28.649 Y115.199
G1 F1500 X31.799 Y118.349 E55.26655
G0 F7500 X32.364 Y118.349
G1 F1500 X28.649 Y114.634 E55.52867
G0 F7500 X28.649 Y114.068
G1 F1500 X32.93 Y118.349 E55.83071
G0 F7500 X33.496 Y118.349
G1 F1500 X28.649 Y113.502 E56.1727
G0 F7500 X28.649 Y112.936
G1 F1500 X34.062 Y118.349 E56.55461
G0 F7500 X34.627 Y118.349
G1 F1500 X28.649 Y112.371 E56.97639
G0 F7500 X28.649 Y111.805
G1 F1500 X35.193 Y118.349 E57.43811
G0 F7500 X35.759 Y118.349
G1 F1500 X28.649 Y111.239 E57.93976
G0 F7500 X28.649 Y110.674
G1 F1500 X36.324 Y118.349 E58.48127
G0 F7500 X36.89 Y118.349
G1 F1500 X28.649 Y110.108 E59.06272
G0 F7500 X28.649 Y109.542
G1 F1500 X37.456 Y118.349 E59.6841
G0 F7500 X38.021 Y118.349
G1 F1500 X28.649 Y108.977 E60.34534
G0 F7500 X28.649 Y108.411
G1 F1500 X38.587 Y118.349 E61.04652
G0 F7500 X39.153 Y118.349
G1 F1500 X28.649 Y107.845 E61.78764
G0 F7500 X28.649 Y107.28
G1 F1500 X39.718 Y118.349 E62.56861
G0 F7500 X40.284 Y118.349
G1 F1500 X28.649 Y106.714 E63.38952
G0 F7500 X28.649 Y106.148
G1 F1500 X40.85 Y118.349 E64.25037
G0 F7500 X41.415 Y118.349
G1 F1500 X28.649 Y105.583 E65.15108
G0 F7500 X28.649 Y105.017
G1 F1500 X41.981 Y118.349 E66.09173
G0 F7500 X42.547 Y118.349
G1 F1500 X28.649 Y104.451 E67.07231
G0 F7500 X28.649 Y103.886
G1 F1500 X43.113 Y118.349 E68.09278
G0 F7500 X43.678 Y118.349
G1 F1500 X28.649 Y103.32 E69.15316
G0 F7500 X28.649 Y102.754
G1 F1500 X44.244 Y118.349 E70.25347
G0 F7500 X44.81 Y118.349
G1 F1500 X28.649 Y102.188 E71.39372
G0 F7500 X28.676 Y101.649
G1 F1500 X45.375 Y118.349 E72.57196
G0 F7500 X45.941 Y118.349
G1 F1500 X29.241 Y101.649 E73.75023
G0 F7500 X29.807 Y101.649
G1 F1500 X46.507 Y118.349 E74.92851
G0 F7500 X47.072 Y118.349
G1 F1500 X30.373 Y101.649 E76.10675
G0 F7500 X30.938 Y101.649
G1 F1500 X47.638 Y118.349 E77.28502
G0 F7500 X48.204 Y118.349
G1 F1500 X31.504 Y101.649 E78.4633
G0 F7500 X32.07 Y101.649
G1 F1500 X48.769 Y118.349 E79.64154
G0 F7500 X49.335 Y118.349
G1 F1500 X32.635 Y101.649 E80.81981
G0 F7500 X33.201 Y101.649
G1 F1500 X49.901 Y118.349 E81.99809
G0 F7500 X50.466 Y118.349
G1 F1500 X33.767 Y101.649 E83.17633
G0 F7500 X34.332 Y101.649
G1 F1500 X51.032 Y118.349 E84.3546
G0 F7500 X51.598 Y118.349
G1 F1500 X34.898 Y101.649 E85.53288
G0 F7500 X35.464 Y101.649
G1 F1500 X52.163 Y118.349 E86.71112
G0 F7500 X52.729 Y118.349
G1 F1500 X36.029 Y101.649 E87.88939
G0 F7500 X36.595 Y101.649
G1 F1500 X53.295 Y118.349 E89.06767
G0 F7500 X53.861 Y118.349
G1 F1500 X37.161 Y101.649 E90.24594
G0 F7500 X37.726 Y101.649
G1 F1500 X54.426 Y118.349 E91.42422
G0 F7500 X54.992 Y118.349
G1 F1500 X38.292 Y101.649 E92.60249
G0 F7500 X38.858 Y101.649
G1 F1500 X55.558 Y118.349 E93.78077
G0 F7500 X56.123 Y118.349
G1 F1500 X39.424 Y101.649 E94.95901
G0 F7500 X39.989 Y101.649
G1 F1500 X56.689 Y118.349 E96.13729
G0 F7500 X57.255 Y118.349
G1 F1500 X40.555 Y101.649 E97.31556
G0 F7500 X41.121 Y101.649
G1 F1500 X57.82 Y118.349 E98.4938
G0 F7500 X58.386 Y118.349
G1 F1500 X41.686 Y101.649 E99.67208
G0 F7500 X42.252 Y101.649
G1 F1500 X58.952 Y118.349 E100.85035
G0 F7500 X59.517 Y118.349
G1 F1500 X42.818 Y101.649 E102.02859
G0 F7500 X43.383 Y101.649
G1 F1500 X60.083 Y118.349 E103.20687
G0 F7500 X60.557 Y118.257
G1 F1500 X43.949 Y101.649 E104.37865
G0 F7500 X44.515 Y101.649
G1 F1500 X61.004 Y118.138 E105.54204
G0 F7500 X61.451 Y118.02
G1 F1500 X45.08 Y101.649 E106.6971
G0 F7500 X45.646 Y101.649
G1 F1500 X61.899 Y117.902 E107.84384
G0 F7500 X62.347 Y117.784
G1 F1500 X46.212 Y101.649 E108.98225
G0 F7500 X46.777 Y101.649
G1 F1500 X62.794 Y117.666 E110.11233
G0 F7500 X63.242 Y117.548
G1 F1500 X47.343 Y101.649 E111.23409
G0 F7500 X47.909 Y101.649
G1 F1500 X63.696 Y117.436 E112.34795
G0 F7500 X64.161 Y117.335
G1 F1500 X48.474 Y101.649 E113.45472
G0 F7500 X49.04 Y101.649
G1 F1500 X64.627 Y117.236 E114.55447
G0 F7500 X65.093 Y117.136
G1 F1500 X49.606 Y101.649 E115.64716
G0 F7500 X50.172 Y101.649
G1 F1500 X65.558 Y117.036 E116.73276
G0 F7500 X66.024 Y116.936
G1 F1500 X50.737 Y101.649 E117.81134
G0 F7500 X51.303 Y101.649
G1 F1500 X66.49 Y116.836 E118.88286
G0 F7500 X66.955 Y116.736
G1 F1500 X51.869 Y101.649 E119.9473
G0 F7500 X52.434 Y101.649
G1 F1500 X67.434 Y116.649 E121.00563
G0 F7500 X67.919 Y116.568
G1 F1500 X53 Y101.649 E122.05825
G0 F7500 X53.566 Y101.649
G1 F1500 X68.404 Y116.488 E123.10518
G0 F7500 X68.889 Y116.407
G1 F1500 X54.131 Y101.649 E124.14644
G0 F7500 X54.697 Y101.649
G1 F1500 X69.374 Y116.326 E125.18198
G0 F7500 X69.86 Y116.246
G1 F1500 X55.263 Y101.649 E126.21188
G0 F7500 X55.828 Y101.649
G1 F1500 X70.345 Y116.166 E127.23613
G0 F7500 X70.839 Y116.094
G1 F1500 X56.394 Y101.649 E128.2553
G0 F7500 X56.96 Y101.649
G1 F1500 X71.344 Y116.034 E129.27021
G0 F7500 X71.851 Y115.974
G1 F1500 X57.525 Y101.649 E130.28095
G0 F7500 X58.091 Y101.649
G1 F1500 X72.356 Y115.914 E131.28742
G0 F7500 X72.863 Y115.855
G1 F1500 X58.657 Y101.649 E132.28973
G0 F7500 X59.223 Y101.649
G1 F1500 X73.368 Y115.795 E133.28777
G0 F7500 X73.874 Y115.735
G1 F1500 X59.788 Y101.649 E134.28162
G0 F7500 X60.406 Y101.701
G1 F1500 X74.386 Y115.681 E135.26798
G0 F7500 X74.914 Y115.643
G1 F1500 X61.174 Y101.903 E136.23741
G0 F7500 X61.943 Y102.106
G1 F1500 X75.442 Y115.606 E137.18987
G0 F7500 X75.97 Y115.568
G1 F1500 X62.711 Y102.309 E138.12537
G0 F7500 X63.48 Y102.512
G1 F1500 X76.499 Y115.531 E139.04393
G0 F7500 X77.027 Y115.493
G1 F1500 X64.206 Y102.673 E139.94849
G0 F7500 X64.927 Y102.828
G1 F1500 X77.556 Y115.457 E140.83953
G0 F7500 X78.097 Y115.433
G1 F1500 X65.647 Y102.982 E141.71798
G0 F7500 X66.367 Y103.137
G1 F1500 X78.649 Y115.418 E142.58451
G0 F7500 X79.201 Y115.405
G1 F1500 X67.087 Y103.291 E143.43921
G0 F7500 X67.765 Y103.403
G1 F1500 X79.753 Y115.391 E144.28503
G0 F7500 X80.305 Y115.377
G1 F1500 X68.443 Y103.516 E145.12192
G0 F7500 X69.121 Y103.628
G1 F1500 X80.856 Y115.363 E145.94989
G0 F7500 X81.411 Y115.352
G1 F1500 X69.799 Y103.741 E146.76915
G0 F7500 X70.478 Y103.854
G1 F1500 X81.976 Y115.351 E147.58036
G0 F7500 X82.541 Y115.351
G1 F1500 X71.129 Y103.939 E148.38554
G0 F7500 X71.77 Y104.014
G1 F1500 X83.106 Y115.351 E149.18539
G0 F7500 X83.671 Y115.35
G1 F1500 X72.411 Y104.09 E149.97984
G0 F7500 X73.054 Y104.166
G1 F1500 X84.236 Y115.349 E150.76883
G0 F7500 X84.802 Y115.349
G1 F1500 X73.695 Y104.242 E151.55249
G0 F7500 X74.333 Y104.314
G1 F1500 X85.368 Y115.349 E152.33106
G0 F7500 X85.933 Y115.349
G1 F1500 X74.942 Y104.357 E153.10657
G0 F7500 X75.55 Y104.4
G1 F1500 X86.499 Y115.349 E153.87908
G0 F7500 X87.065 Y115.349
G1 F1500 X76.158 Y104.443 E154.6486
G0 F7500 X76.767 Y104.486
G1 F1500 X87.631 Y115.349 E155.41508
G0 F7500 X88.196 Y115.349
G1 F1500 X77.376 Y104.529 E156.17849
G0 F7500 X77.98 Y104.567
G1 F1500 X88.762 Y115.349 E156.93921
G0 F7500 X89.328 Y115.349
G1 F1500 X78.559 Y104.581 E157.69899
G0 F7500 X79.138 Y104.594
G1 F1500 X89.893 Y115.349 E158.45781
G0 F7500 X90.459 Y115.349
G1 F1500 X79.718 Y104.608 E159.21565
G0 F7500 X80.297 Y104.622
G1 F1500 X91.025 Y115.349 E159.97253
G0 F7500 X91.59 Y115.349
G1 F1500 X80.876 Y104.635 E160.72846
G0 F7500 X81.455 Y104.648
G1 F1500 X92.156 Y115.349 E161.48348
G0 F7500 X92.722 Y115.349
G1 F1500 X82.022 Y104.649 E162.23842
G0 F7500 X82.587 Y104.649
G1 F1500 X93.287 Y115.349 E162.99336
G0 F7500 X93.853 Y115.349
G1 F1500 X83.153 Y104.649 E163.7483
G0 F7500 X83.719 Y104.649
G1 F1500 X94.419 Y115.349 E164.50325
G0 F7500 X94.984 Y115.349
G1 F1500 X84.285 Y104.649 E165.25815
G0 F7500 X84.85 Y104.649
G1 F1500 X95.55 Y115.349 E166.0131
G0 F7500 X96.116 Y115.349
G1 F1500 X85.416 Y104.649 E166.76804
G0 F7500 X85.982 Y104.649
G1 F1500 X96.682 Y115.349 E167.52298
G0 F7500 X97.247 Y115.349
G1 F1500 X86.547 Y104.649 E168.27793
G0 F7500 X87.113 Y104.649
G1 F1500 X97.813 Y115.349 E169.03287
G0 F7500 X98.379 Y115.349
G1 F1500 X87.679 Y104.649 E169.78781
G0 F7500 X88.244 Y104.649
G1 F1500 X98.944 Y115.349 E170.54275
G0 F7500 X99.51 Y115.349
G1 F1500 X88.81 Y104.649 E171.2977
G0 F7500 X89.376 Y104.649
G1 F1500 X100.076 Y115.349 E172.05264
G0 F7500 X100.641 Y115.349
G1 F1500 X89.941 Y104.649 E172.80758
G0 F7500 X90.507 Y104.649
G1 F1500 X101.207 Y115.349 E173.56252
G0 F7500 X101.773 Y115.349
G1 F1500 X91.073 Y104.649 E174.31747
G0 F7500 X91.638 Y104.649
G1 F1500 X102.338 Y115.349 E175.07241
G0 F7500 X102.904 Y115.349
G1 F1500 X92.204 Y104.649 E175.82735
G0 F7500 X92.77 Y104.649
G1 F1500 X103.47 Y115.349 E176.5823
G0 F7500 X104.035 Y115.349
G1 F1500 X93.335 Y104.649 E177.33724
G0 F7500 X93.901 Y104.649
G1 F1500 X104.601 Y115.349 E178.09218
G0 F7500 X105.167 Y115.349
G1 F1500 X94.467 Y104.649 E178.84712
G0 F7500 X95.033 Y104.649
G1 F1500 X105.732 Y115.349 E179.60203
G0 F7500 X106.298 Y115.349
G1 F1500 X95.598 Y104.649 E180.35697
G0 F7500 X96.164 Y104.649
G1 F1500 X106.864 Y115.349 E181.11192
G0 F7500 X107.43 Y115.349
G1 F1500 X96.73 Y104.649 E181.86686
G0 F7500 X97.295 Y104.649
G1 F1500 X107.995 Y115.349 E182.6218
G0 F7500 X108.561 Y115.349
G1 F1500 X97.861 Y104.649 E183.37675
G0 F7500 X98.427 Y104.649
G1 F1500 X109.127 Y115.349 E184.13169
G0 F7500 X109.692 Y115.349
G1 F1500 X98.992 Y104.649 E184.88663
G0 F7500 X99.558 Y104.649
G1 F1500 X110.258 Y115.349 E185.64157
G0 F7500 X110.824 Y115.349
G1 F1500 X100.124 Y104.649 E186.39652
G0 F7500 X100.689 Y104.649
G1 F1500 X111.389 Y115.349 E187.15146
G0 F7500 X111.955 Y115.349
G1 F1500 X101.255 Y104.649 E187.9064
G0 F7500 X101.821 Y104.649
G1 F1500 X112.521 Y115.349 E188.66135
G0 F7500 X113.086 Y115.349
G1 F1500 X102.386 Y104.649 E189.41629
G0 F7500 X102.952 Y104.649
G1 F1500 X113.652 Y115.349 E190.17123
G0 F7500 X114.218 Y115.349
G1 F1500 X103.518 Y104.649 E190.92617
G0 F7500 X104.083 Y104.649
G1 F1500 X114.783 Y115.349 E191.68112
G0 F7500 X115.349 Y115.349
G1 F1500 X104.649 Y104.649 E192.43606
G0 F7500 X105.215 Y104.649
G1 F1500 X115.915 Y115.349 E193.191
G0 F7500 X116.48 Y115.349
G1 F1500 X105.781 Y104.649 E193.94591
G0 F7500 X106.346 Y104.649
G1 F1500 X117.046 Y115.349 E194.70085
G0 F7500 X117.612 Y115.349
G1 F1500 X106.912 Y104.649 E195.4558
G0 F7500 X107.478 Y104.649
G1 F1500 X118.178 Y115.349 E196.21074
G0 F7500 X118.743 Y115.349
G1 F1500 X108.043 Y104.649 E196.96568
G0 F7500 X108.609 Y104.649
G1 F1500 X119.309 Y115.349 E197.72062
G0 F7500 X119.875 Y115.349
G1 F1500 X109.175 Y104.649 E198.47557
G0 F7500 X109.74 Y104.649
G1 F1500 X120.44 Y115.349 E199.23051
G0 F7500 X121.006 Y115.349
G1 F1500 X110.306 Y104.649 E199.98545
G0 F7500 X110.872 Y104.649
G1 F1500 X121.572 Y115.349 E200.74039
G0 F7500 X122.137 Y115.349
G1 F1500 X111.437 Y104.649 E201.49534
G0 F7500 X112.003 Y104.649
G1 F1500 X122.703 Y115.349 E202.25028
G0 F7500 X123.269 Y115.349
G1 F1500 X112.569 Y104.649 E203.00522
G0 F7500 X113.134 Y104.649
G1 F1500 X123.834 Y115.349 E203.76017
G0 F7500 X124.4 Y115.349
G1 F1500 X113.7 Y104.649 E204.51511
G0 F7500 X114.266 Y104.649
G1 F1500 X124.966 Y115.349 E205.27005
G0 F7500 X125.531 Y115.349
G1 F1500 X114.832 Y104.649 E206.02496
G0 F7500 X115.397 Y104.649
G1 F1500 X126.097 Y115.349 E206.7799
G0 F7500 X126.663 Y115.349
G1 F1500 X115.963 Y104.649 E207.53484
G0 F7500 X116.529 Y104.649
G1 F1500 X127.229 Y115.349 E208.28979
G0 F7500 X127.794 Y115.349
